X:1
T:Hopp Marjaennche
A:Deutschland
R:Dreher
%%textfont Helvetica-Narrow 10pt
%%begintext align
B:"Das kleine dicke Liederbuch", Heide Buhmann, Hanspeter Haeseler, 5.Auflage, Eigenverlag, Schluechtern 1989
N:dort ganz G, einstimmig mit harmonie-buchstaben, Seite 210 
%%endtext
F:http://simonwascher.info
Z:abc transcripton Simon Wascher
M:2/4
L:1/8
K:G
B2G GFG | B2G GFG | A2A ABc | e3 d3 |\
B2G GFG | B2G GFG | ABc DEF | A3 G3  :|
|:\
g2g gfe | e2d d2B | B2A ABc | e2d d2B |\
g2g gfe | e2d d2B | ABc DEF | A3 G3 ||
%%wordsfont Times-Italic 11pt
W:aus Simon Waschers TradArchiv
